X:4398
L:1/8
Q:3/8=100
M:6/8
K:Bb
 B | (A/B/c)A B2 c | dcB ABc | F2 e edc | (d/e/f)d B2 b | fdB gec | (A/B/c)A F2 G | Acf Gf=e | 
 f3- f2 :: B | (A/B/c)A f2 e | (d/e/f)d B2 b | g^fg dcB | AG^F G2 B | A/B/cA B2 c | dBG EGc | 
 DFB CBA | B3- B2 :|

